!!!!SEGMENT: pl-sa--80-a-ii-20--002_bohdanowicz-bazyli--symfonia-ex-d-menueto.krn
!!!cenid: 17xx:334
!!!COM: Bohdanowicz, Bazyli
!!!COM-rismID: pe30009893
!!!CDT: 1740-1817
!!!CNT: Polish
!!!OPR: Symfonia ex D
!!!OTL: Menueto
!!!OMV: 002
!!!PDT:
!!!AGN:
!!!SMS-siglum: PL-SA
!!!SMS-shelfmark: 80/A II 20
!!!SMS-shelfwork: 001-002 M
!!!NIFC-rismSourceID: 1001034987
!!!NIFC-islandoraID:
!!!URL-pdf-islandora:
!!!URL-scan: https://bc.bdsandomierz.pl/dlibra/publication/1358/edition/1326/content @EN{Scan in the Sandomierz Diocese Digital Library} @PL{Skany w portalu Cyfrowa Biblioteka Diecezjalna w Sandomierzu}
!!!ONB-nifc: UWAGA: części Symfonii: Allegro, Menueto, Polonese, Presto moderato. UWAGA: brak partii altówki
!!!AIN: 1 bass 1 cor 1 empty 2 oboe 1 viola 2 violn
!!!key:
**kern	**dynam	**kern	**kern	**dynam	**kern	**dynam	**kern	**kern	**kern	**kern
*part7	*part7	*	*part2	*part2	*part1	*part1	*part6	*part5	*part4	*part3
*group	*group	*group3	*group3	*group3	*group3	*group3	*group2	*group2	*group1	*group1
*staff8	*	*staff7	*staff6	*	*staff5	*	*staff4	*staff3	*staff2	*staff1
*Ibass	*	*Iviola	*Ivioln	*	*Ivioln	*	*Iempty	*Icor	*Ioboe	*Ioboe
*I"Basso	*	*I"Viola	*I"Violino 2do	*	*I"Violino Primo	*	*I"Cornu 2do	*I"Corno Primo	*I"Oboe 2do	*I"Oboe Primo
*I'bc	*	*I'vla	*I'vl 2	*	*I'vl 1	*	*I'cor 2	*I'cor 1	*I'ob 2	*I'ob 1
*clefF4	*	*	*clefG2	*	*clefG2	*	*clefG2	*clefG2	*clefG2	*clefG2
*	*	*	*	*	*	*	*ITrd-1c-2	*ITrd-1c-2	*	*
*k[f#c#]	*	*	*k[f#c#]	*	*k[f#c#]	*	*k[f#c#]	*k[f#c#]	*k[f#c#]	*k[f#c#]
*A:	*	*	*A:	*	*A:	*	*A:	*A:	*A:	*A:
*M3/4	*	*	*M3/4	*	*M3/4	*	*M3/4	*M3/4	*M3/4	*M3/4
=1	=1	=1	=1	=1	=1	=1	=1	=1	=1	=1
!	!	!	!	!	!	!	!	!	!	!LO:TX:a:t=P:problem=w źródle ta adnotacja zapisana na pięciolinii, przed pierwszym taktem
!	!	!	!	!	!	!	!	!	!LO:TX:a:t=P:problem=w źródle ta adnotacja zapisana na pięciolinii, przed pierwszym taktem	!
!	!	!	!	!	!LO:TX:a:t=P:problem=w źródle ta adnotacja zapisana na pięciolinii, przed pierwszym taktem	!	!LO:TX:a:t=P:problem=w źródle ta adnotacja zapisana na pięciolinii, przed pierwszym taktem	!	!	!
!	!	!	!	!	!	!	!	!LO:SIC:s=Menueto/Menuetto	!	!
!	!	!	!LO:TX:a:t=P:problem=w źródle ta adnotacja zapisana na pięciolinii, przed pierwszym taktem	!	!	!	!	!	!	!
!LO:TX:i:a:t=Menueto	!	!	!LO:TX:i:a:t=Menuetto	!	!LO:TX:i:a:t=Menuet	!	!LO:TX:i:a:t=Menuetto	!LO:TX:i:a:t=Menut	!LO:TX:i:a:t=Menueto	!LO:TX:i:a:t=Menueto
4D\	.	2.ryy	4d/	.	4d/	.	4d/	2.d/	4d/	2.d/
4D\	.	.	4r	.	8r	.	4r	.	4r	.
.	.	.	.	.	8d/L	.	.	.	.	.
4r	.	.	4r	.	8d/	.	4r	.	4r	.
.	.	.	.	.	8d/J	.	.	.	.	.
=2	=2	=2	=2	=2	=2	=2	=2	=2	=2	=2
4D\	.	2.ryy	4d/	.	4f#/	.	2.d/	2.f#/	2.d/	2.f#/
4D\	.	.	8r	.	8r	.	.	.	.	.
.	.	.	8d/L	.	8f#/L	.	.	.	.	.
4r	.	.	8d/	.	8f#/	.	.	.	.	.
.	.	.	8d/J	.	8f#/J	.	.	.	.	.
=3	=3	=3	=3	=3	=3	=3	=3	=3	=3	=3
4D\	.	2.ryy	4f#/	.	4a/	.	2.f#/	2.a/	2.f#/	2.a/
4d\	.	.	8r	.	8r	.	.	.	.	.
.	.	.	8f#/L	.	8a/L	.	.	.	.	.
4r	.	.	8f#/	.	8a/	.	.	.	.	.
.	.	.	8f#/J	.	8a/J	.	.	.	.	.
=4	=4	=4	=4	=4	=4	=4	=4	=4	=4	=4
4D\	.	2.ryy	(>8a\L	.	8dd\L|	.	4f#/	4dd\	8a\L|	8dd\L|
.	.	.	8ff#\	.	(>8aa\	.	.	.	(>8ff#\	(>8aa\
4d\	.	.	8ee\	.	8gg\	.	4f#/	4dd\	8ee\	8gg\
.	.	.	8dd\	.	8ff#\	.	.	.	8dd\)	8ff#\
4r	.	.	8g\	.	8ee\	.	4r	4r	(>8g\	8ee\
.	.	.	8f#\J)	.	8dd\J)	.	.	.	8f#\J)	8dd\J)
=5	=5	=5	=5	=5	=5	=5	=5	=5	=5	=5
!	!LO:DY:a:t=p&colon;	!	!	!	!LO:TX:a:i:t=ſolo	!	!	!	!	!
4AA/	p	2.ryy	4r	.	(>4cc#\	.	4a/	4ee\	(>4e/	(>4cc#\
4AA/	.	.	4cc#\	.	4ee\)	.	4a/	4ee\	4cc#\)	4ee\)
4AA/	.	.	4cc#\	.	4ee\|	.	4a/	4ee\	4b\|	4ee\|
=6	=6	=6	=6	=6	=6	=6	=6	=6	=6	=6
*	*	*	*	*	*	*	*	*	*2\right	*2\right
*	*	*	*	*	*Xtuplet	*	*	*	*	*
4GG#X/	.	2.ryy	4b\	.	4dd\	.	4ee\	4ee\	2.b\	2.dd\
!	!	!	!	!	!LO:TUP:a:problem=klamra łukowa, kropka zamiast numeru	!	!	!	!	!
4r	.	.	4r	.	12bb\L	.	4r	4r	.	.
.	.	.	.	.	12aa\	.	.	.	.	.
.	.	.	.	.	12gg#X\J	.	.	.	.	.
*	*	*	*	*	*tuplet	*	*	*	*	*
*	*	*	*Xtuplet	*	*	*	*	*	*	*
!	!	!	!LO:TUP:a:problem=klamra łukowa, kropka zamiast numeru	!	!LO:TUP:a:problem=klamra łukowa, kropka zamiast numeru	!	!	!	!	!
4E\	.	.	12dd\L	.	12ff#\L	.	4r	4r	.	.
.	.	.	12cc#\	.	12ee\	.	.	.	.	.
.	.	.	12b\J	.	12dd\J	.	.	.	.	.
=7	=7	=7	=7	=7	=7	=7	=7	=7	=7	=7
!	!	!	!	!	!	!	!	!LO:TX:a:t=P:problem=w źródle takty 7-8 zapisane jako repetycja taktów 5-6	!	!
4A\	.	2.ryy	(>8a\L	.	(>8cc#\L	.	4a/	4ee\	(>4a\	(>4cc#\
.	.	.	8cc#\)	.	8ee\)	.	.	.	.	.
4AA/	.	.	(>8a\	.	(>8cc#\	.	4a/	4ee\	4cc#\)	4ee\)
.	.	.	8cc#\)	.	8ee\)	.	.	.	.	.
4AA/	.	.	(>8a\	.	(>8cc#\	.	4a/	4ee\	4cc#\|	4ee\|
.	.	.	8cc#\J)	.	8ee\J)	.	.	.	.	.
=8	=8	=8	=8	=8	=8	=8	=8	=8	=8	=8
4E\	.	2.ryy	8cc#\L	.	(>8ee\L	.	4dd\	4ee\	(>8cc#\L	(>8ee\L
.	.	.	8b\J	.	8dd\J)	.	.	.	8b\J)	8dd\J)
!	!	!	!	!	!LO:TUP:a:problem=klamra łukowa	!	!	!	!	!
4r	.	.	4r	.	12bb\L	.	4r	4r	2b\	2dd\
.	.	.	.	.	12aa\	.	.	.	.	.
.	.	.	.	.	12gg#X\J	.	.	.	.	.
!	!	!	!LO:TUP:a:problem=klamra łukowa, kropka zamiast numeru	!	!LO:TUP:a:problem=klamra łukowa	!	!	!	!	!
4E\	.	.	12dd\L	.	12ff#\L	.	4r	4r	.	.
.	.	.	12cc#\	.	12ee\	.	.	.	.	.
.	.	.	12b\J	.	12dd\J	.	.	.	.	.
=9	=9	=9	=9	=9	=9	=9	=9	=9	=9	=9
4A\	.	2.ryy	(>8a\L	.	(>8cc#\L	.	4a/	4ee\	4a/	4cc#\
.	.	.	8cc#\J)	.	8ee\J)	.	.	.	.	.
*	*	*	*2\right	*	*	*	*	*	*	*
4A\	.	.	2cc#\	.	8r	.	4r	4r	4r	4r
.	.	.	.	.	8ee\L	.	.	.	.	.
4A\	.	.	.	.	(>8aa\	.	4r	4r	4r	4r
.	.	.	.	.	8gg#X\J)	.	.	.	.	.
!	!	!	!LO:LB:g=original	!	!	!	!	!	!	!
=10	=10	=10	=10	=10	=10	=10	=10	=10	=10	=10
!	!	!	!	!	!LO:SIC:s=8qgg#	!	!LO:TX:a:t=4	!	!	!
.	.	.	8qqee/	.	8qqgg/	.	.	.	.	.
!	!	!	!	!	!	!	!LO:N:vis=00	!LO:N:vis=00	!LO:N:vis=00	!LO:N:vis=00
4D\	.	2.ryy	8dd\L	.	8ff#\L	.	0.r	0.r	0.r	0.r
.	.	.	16cc#\L	.	16ee\L	.	.	.	.	.
.	.	.	16b\JJ	.	16dd\JJ	.	.	.	.	.
4E\	.	.	(<4a/	.	(>4cc#\	.	.	.	.	.
4E\	.	.	4g#X/)	.	4b\)	.	.	.	.	.
!	!	!	!	!	!LO:LB:g=original	!	!	!	!	!
=11	=11	=11	=11	=11	=11	=11	=11	=11	=11	=11
!	!	!	!LO:TX:a:i:t=ſolo	!	!	!	!	!	!	!
!	!	!	!	!	!	!LO:DY:a:t=p&colon;	!	!	!	!
4AA/	.	2.ryy	(<8a/L	.	4a/	p	.	.	.	.
.	.	.	8e/J)	.	.	.	.	.	.	.
4AA/	.	.	8r	.	2c#/	.	.	.	.	.
.	.	.	(<8c#/L	.	.	.	.	.	.	.
4AA/	.	.	8e/	.	.	.	.	.	.	.
.	.	.	8a/J)	.	.	.	.	.	.	.
=12	=12	=12	=12	=12	=12	=12	=12	=12	=12	=12
.	.	.	8qqg/	.	.	.	.	.	.	.
4D\	.	2.ryy	8f#/L	.	2A/	.	.	.	.	.
.	.	.	16e/L	.	.	.	.	.	.	.
.	.	.	16d/JJ	.	.	.	.	.	.	.
4E\	.	.	(<4c#/	.	.	.	.	.	.	.
4E\	.	.	4BT/	.	4G#X/	.	.	.	.	.
.	.	.	16qqA/LL)	.	.	.	.	.	.	.
.	.	.	16qqB/JJ	.	.	.	.	.	.	.
=13	=13	=13	=13	=13	=13	=13	=13	=13	=13	=13
!	!	!	!	!	!LO:SIC:s=8qG#	!	!	!	!	!
.	.	.	8qqB/	.	(<8qqG/	.	.	.	.	.
4A\	.	2.ryy	2.A/	.	2.A/)	.	.	.	.	.
4E\	.	.	.	.	.	.	.	.	.	.
4AA/	.	.	.	.	.	.	.	.	.	.
!LO:LB:g=original	!	!	!	!	!	!	!LO:LB:g=original	!	!	!
=14||;	=14	=14	=14||;	=14	=14||;	=14	=14||	=14||;	=14||;	=14||;
!	!LO:DY:rj	!	!	!	!	!	!	!	!	!
!	!LO:DY:a:t=for	!	!	!LO:DY:a:t=for	!	!LO:DY:a:t=for	!	!	!	!
4A\	f	2.ryy	4a/	f	4a/	f	[<2.f#/	2.f#/	2.a/	[<2.ccn\
8r	.	.	8r	.	8r	.	.	.	.	.
8cn\L	.	.	(<8ccn/L	.	8ccn\L	.	.	.	.	.
8A\	.	.	8a/	.	8a\	.	.	.	.	.
8G\J	.	.	8g/J)	.	8g\J	.	.	.	.	.
!	!	!	!	!	!	!	!	!	!LO:LB:g=original	!
=15	=15	=15	=15	=15	=15	=15	=15	=15	=15	=15
4F#\	.	2.ryy	4f#/	.	4f#/	.	2.f#/_<	2.f#/	2.a/	2.cc\_>
8r	.	.	8r	.	8r	.	.	.	.	.
8A\L	.	.	8a/L	.	8a/L	.	.	.	.	.
8F#\	.	.	(<8f#/	.	8f#/	.	.	.	.	.
8E\J	.	.	8e/J)	.	8e/J	.	.	.	.	.
=16	=16	=16	=16	=16	=16	=16	=16	=16	=16	=16
!	!	!	!	!	!	!LO:DY:a:t=p&colon;	!	!	!	!
4D#X/	.	2.ryy	4d#X/	.	4d#X/	p	4f#/]	4f#/	4a/	4cc\]
4BB/	.	.	8r	.	8r	.	4r	4r	4r	4r
!	!	!	!	!LO:DY:a:t=p&colon;	!	!	!	!	!	!
.	.	.	(>8ff#'\L	p	(>8aa'\L	.	.	.	.	.
4B\	.	.	8ff#'\	.	8aa'\	.	4r	4r	4r	4r
.	.	.	8ff#'\J)	.	8aa'\J)	.	.	.	.	.
!	!	!	!	!	!	!	!	!	!	!LO:LB:g=original
=17	=17	=17	=17	=17	=17	=17	=17	=17	=17	=17
4e\	.	2.ryy	(>4ff#\	.	(>4aa\	.	4r	4r	4r	4r
4B\	.	.	4ee\)	.	4gg\)	.	4ee\	4ee\	(>4ee\	(>4gg\
4E\	.	.	4r	.	4r	.	4ee\	4ee\	4b\)	4ee\)
=18	=18	=18	=18	=18	=18	=18	=18	=18	=18	=18
*	*	*	*	*	*	*	*	*2\right	*	*
!	!LO:DY:a:t=for	!	!	!LO:DY:a:t=for	!	!LO:DY:a:t=for	!	!	!	!
4G\	f	2.ryy	4e/	f	4g/	f	[>2.ee\	2.ee\	2.g/	[>2.b\
8r	.	.	8r	.	8r	.	.	.	.	.
8B\L	.	.	(<8b/L	.	8b/L	.	.	.	.	.
8G\	.	.	8g/	.	8g/	.	.	.	.	.
8F#\J	.	.	8f#/J)	.	8f#/J	.	.	.	.	.
!	!	!	!LO:LB:g=original	!	!	!	!	!	!	!
=19	=19	=19	=19	=19	=19	=19	=19	=19	=19	=19
!	!	!	!	!	!	!	!	!LO:TX:a:t=P:problem=w źródle takt 19 zapisany jako repetycja taktu 18	!	!
4E\	.	2.ryy	4e/	.	4e/	.	2.ee\_>	2.ee\	2.g/	2.b\_>
8r	.	.	8r	.	8r	.	.	.	.	.
8G\L	.	.	(<8g/L	.	8g/L	.	.	.	.	.
8E\	.	.	8e/	.	8e/	.	.	.	.	.
8D\J	.	.	8d/J)	.	8d/J	.	.	.	.	.
=20	=20	=20	=20	=20	=20	=20	=20	=20	=20	=20
!	!	!	!LO:TX:a:i:t=ſolo	!	!	!	!	!	!	!
!	!	!	!	!	!	!LO:DY:a:t=p&colon;	!	!	!	!
4C#/	.	2.ryy	4c#/	.	4c#/	p	4ee\]	4ee\	4g/	4b\]
!	!LO:DY:a:t=p&colon;	!	!	!	!	!	!	!	!	!
4AA/	p	.	8r	.	8r	.	4r	4r	4r	4r
.	.	.	(>8gg'\L	.	(>8ee'\L	.	.	.	.	.
4A\	.	.	8gg'\	.	8ee'\	.	4r	4r	4r	4r
.	.	.	8gg'\J)	.	8ee'\J)	.	.	.	.	.
=21	=21	=21	=21	=21	=21	=21	=21	=21	=21	=21
4d\	.	2.ryy	4gg\	.	(>4ee\	.	4r	4r	4r	4r
4D\	.	.	4ff#\	.	4dd\)	.	4a/	4dd\	(<4f#/	(>4a\
16A\LL	.	.	4r	.	4r	.	4f#/	4dd\	4a/)	4dd\)
!	!LO:DY:a:t=for	!	!	!	!	!	!	!	!	!
16G\	f	.	.	.	.	.	.	.	.	.
16F#\	.	.	.	.	.	.	.	.	.	.
16E\JJ	.	.	.	.	.	.	.	.	.	.
=22	=22	=22	=22	=22	=22	=22	=22	=22	=22	=22
!	!LO:DY:a:t=p&colon;	!	!	!LO:DY:a:t=for	!LO:TX:a:i:t=ſolo	!	!	!	!	!
4D\	p	2.ryy	(<4d/	f	(<4f#/	.	4f#/	4dd\	(>4dd\	(>4ff#\
4D\	.	.	4f#/)	.	4a/)	.	4f#/	4dd\	4ff#\)	4aa\)
4D\	.	.	4f#'/	.	4a/|	.	4f#/	4dd\	4ff#\|	4aa\|
=23	=23	=23	=23	=23	=23	=23	=23	=23	=23	=23
4C#/	.	2.ryy	4e/	.	4g/|	.	4a/	4ee\	2.ee\	2.gg\
!	!	!	!	!	!LO:TUP:a:problem=klamra łukowa	!	!	!	!	!
4r	.	.	4r	.	12ee\L	.	4r	4r	.	.
.	.	.	.	.	12dd\	.	.	.	.	.
.	.	.	.	.	12cc#\J	.	.	.	.	.
!	!	!	!	!	!LO:TUP:a:problem=klamra łukowa	!	!	!	!	!
4AA/	.	.	(<12g/L	.	12b\L	.	4r	4r	.	.
.	.	.	12f#/	.	12a\	.	.	.	.	.
.	.	.	12e/J)	.	12g\J	.	.	.	.	.
!	!	!	!	!	!LO:LB:g=original	!	!	!	!	!
=24	=24	=24	=24	=24	=24	=24	=24	=24	=24	=24
4D\	.	2.ryy	(<8d/L	.	(<8f#/L	.	4a/	4ff#\	(>4dd\	(>4ff#\
.	.	.	8f#/)	.	8a/)	.	.	.	.	.
4D\	.	.	(<8d/	.	(<8f#/	.	4a/	4ff#\	4ff#\)	4aa\)
.	.	.	8f#/)	.	8a/)	.	.	.	.	.
4D\	.	.	(<8d/	.	(<8f#/	.	4a/	4ff#\	4ff#\|	4aa\|
.	.	.	8f#/J)	.	8a/J)	.	.	.	.	.
!	!	!	!	!	!	!	!	!LO:LB:g=original	!	!
=25	=25	=25	=25	=25	=25	=25	=25	=25	=25	=25
4AA/	.	2.ryy	8f#/L	.	(<8a/L	.	4a/	4a/	(>8ff#\L	(>8aa\L
.	.	.	8e/J	.	8g/J)	.	.	.	8ee\J)	8gg\J)
!	!	!	!	!	!LO:TUP:a:problem=klamra łukowa	!	!	!	!	!
4r	.	.	4r	.	12ee\L	.	4r	4r	2ee\	2gg\
.	.	.	.	.	12dd\	.	.	.	.	.
.	.	.	.	.	12cc#\J	.	.	.	.	.
!	!	!	!	!	!LO:TUP:a:problem=klamra łukowa	!	!	!	!	!
4AA/	.	.	(<12g/L	.	12b\L	.	4r	4r	.	.
.	.	.	12f#/	.	12a\	.	.	.	.	.
.	.	.	12e/J)	.	12g\J	.	.	.	.	.
!LO:LB:g=original	!	!	!	!	!	!	!	!	!	!
=26	=26	=26	=26	=26	=26	=26	=26	=26	=26	=26
!	!	!	!	!	!	!	!	!LO:TX:a:t=P:problem=w źródle takt 26 zapisany jako repetycja taktu 25	!	!
4D\	.	2.ryy	(<8d/L	.	(<8f#/L	.	4d/	4a/	4dd\	4ff#\
.	.	.	8f#/J)	.	8a/J)	.	.	.	.	.
4D\	.	.	2f#/	.	8r	.	4r	4r	4r	4r
.	.	.	.	.	(>8a\L	.	.	.	.	.
4D\	.	.	.	.	8dd\	.	4r	4r	4r	4r
.	.	.	.	.	8cc#\J)	.	.	.	.	.
=27	=27	=27	=27	=27	=27	=27	=27	=27	=27	=27
!	!	!	!	!	!	!	!LO:TX:a:t=4	!	!	!
.	.	.	8qqa/	.	8qqcc#/	.	.	.	.	.
!	!	!	!	!	!	!	!LO:N:vis=00	!LO:N:vis=00	!LO:N:vis=00	!LO:N:vis=00
4G\	.	2.ryy	8g/L	.	8b/L	.	0.r	0.r	0.r	0.r
.	.	.	16f#/L	.	16a/L	.	.	.	.	.
.	.	.	16e/JJ	.	16g/JJ	.	.	.	.	.
4A\	.	.	(<4d/	.	(<4f#/	.	.	.	.	.
4AA/	.	.	4c#/)	.	4e/)	.	.	.	.	.
.	.	.	.	.	16qqd/LL	.	.	.	.	.
.	.	.	.	.	16qqe/JJ	.	.	.	.	.
=28	=28	=28	=28	=28	=28	=28	=28	=28	=28	=28
!	!	!	!	!	!	!LO:DY:a:t=p&colon;	!	!	!	!
4D\	.	2.ryy	(<8f#/L	.	(<8d/L	p	.	.	.	.
.	.	.	8a/J)	.	8f#/J)	.	.	.	.	.
4D\	.	.	8r	.	2f#/	.	.	.	.	.
.	.	.	(<8ff#\L	.	.	.	.	.	.	.
4D\	.	.	8dd\	.	.	.	.	.	.	.
.	.	.	8a\J)	.	.	.	.	.	.	.
!	!	!	!LO:LB:g=original	!	!	!	!	!	!	!
=29	=29	=29	=29	=29	=29	=29	=29	=29	=29	=29
.	.	.	8qqcc#/	.	8qqa/	.	.	.	.	.
4G\	.	2.ryy	8b/L	.	8g/L	.	.	.	.	.
.	.	.	16a/L	.	16f#/L	.	.	.	.	.
.	.	.	16g/JJ	.	16e/JJ	.	.	.	.	.
4A\	.	.	(<4f#/	.	(<4d/	.	.	.	.	.
4AA/	.	.	4eT</	.	4c#/)	.	.	.	.	.
.	.	.	16qqd/LL	.	.	.	.	.	.	.
.	.	.	16qqe/JJ)	.	.	.	.	.	.	.
=30	=30	=30	=30	=30	=30	=30	=30	=30	=30	=30
.	.	.	8qqe/	.	8qqc#/	.	.	.	.	.
4D\	.	2.ryy	2.d/	.	2.d/	.	.	.	.	.
4AA/	.	.	.	.	.	.	.	.	.	.
4DD/	.	.	.	.	.	.	.	.	.	.
!	!	!	!LO:LB:g=original	!	!LO:LB:g=original	!	!LO:LB:g=original	!	!LO:LB:g=original	!LO:LB:g=original
=31||;	=31	=31	=31||;	=31	=31||;	=31	=31	=31||;	=31||;	=31||;
*k[f#c#g#]	*	*	*k[f#c#g#]	*	*k[f#c#g#]	*	*k	*k	*k[f#c#g#]	*k[f#c#g#]
*M3/4	*	*	*M3/4	*	*M3/4	*	*M3/4	*M3/4	*M3/4	*M3/4
!	!	!	!	!	!	!	!	!	!LO:TX:a:t=P:problem=w źródle ta adnotacja zapisana na pięciolinii, przed taktem 31	!LO:TX:a:t=P:problem=w źródle ta adnotacja zapisana na pięciolinii, przed taktem 31
!	!	!	!	!	!	!	!	!	!LO:SIC:s=Trio	!
!	!	!	!	!	!	!	!	!LO:TX:a:t=P:problem=w źródle ta adnotacja zapisana na pięciolinii, przed taktem 31	!	!
!	!	!	!	!	!	!	!LO:TX:a:t=P:problem=w źródle ta adnotacja zapisana na pięciolinii, przed taktem 31	!	!	!
!LO:TX:a:t=P:problem=mixed beam	!	!	!LO:TX:a:i:t=Trio	!	!LO:TX:a:i:t=Trio ſolo	!	!LO:TX:a:i:t=Trio	!LO:TX:a:i:t=Trio	!LO:TX:a:t=Tio	!LO:TX:a:i:t=Trio
!	!	!	!LO:TX:a:t=P::problem=w źródle krzyżyki przykluczowe&colon;ff# cc# g# - w takiej kolejności	!	!LO:TX:a:t=P::problem=w źródle krzyżyki przykluczowe&colon;ff# cc# g# - w takiej kolejności	!	!	!	!	!
!LO:TX:a:t=P:problem=w źródle ta adnotacja zapisana na pięciolinii, przed taktem 31	!	!	!	!	!	!	!	!	!	!
!LO:TX:a:i:t=Trio	!	!	!	!	!	!	!	!	!	!
!	!LO:DY:a:t=p&colon;	!	!	!	!	!	!	!	!	!
8AA/L	p	2.ryy	4cc#\	.	4ee\	.	4A/	4a/	4r	4r
8A\	.	.	.	.	.	.	.	.	.	.
8A\	.	.	4r	.	4r	.	4r	4r	4cc#\	4ee\
8A\	.	.	.	.	.	.	.	.	.	.
8A\	.	.	(>8dd\L	.	(>8ff#\L	.	4r	4r	4r	4r
8A\J	.	.	8cc#\J)	.	8ee\J)	.	.	.	.	.
=32	=32	=32	=32	=32	=32	=32	=32	=32	=32	=32
*2\right	*	*	*	*	*	*	*	*	*	*
*tremolo	*	*	*	*	*	*	*	*	*	*
8A\L	.	2.ryy	4cc#\	.	4ee\	.	4A/	4a/	4r	4r
8A\	.	.	.	.	.	.	.	.	.	.
8A\	.	.	4r	.	4r	.	4r	4r	4cc#\	4ee\
8A\	.	.	.	.	.	.	.	.	.	.
8A\	.	.	(>8dd\L	.	(>8ff#\L	.	4r	4r	4r	4r
8A\J	.	.	8cc#\J)	.	8ee\J)	.	.	.	.	.
*Xtremolo	*	*	*	*	*	*	*	*	*	*
=33	=33	=33	=33	=33	=33	=33	=33	=33	=33	=33
!LO:TX:a:t=P:problem=mixed beam	!	!	!	!	!	!	!	!	!	!
!	!	!	!	!	!	!	!	!LO:TX:a:t=P:problem=w źródle takt 33 zapisany jako repetycja taktu 32	!	!
8AA/L	.	2.ryy	4cc#\	.	4ee\	.	4A/	4a/	(>4ee\	(>4aa\
8A\	.	.	.	.	.	.	.	.	.	.
8A\	.	.	4r	.	4r	.	4r	4r	4cc#\)	4ee\)
8A\	.	.	.	.	.	.	.	.	.	.
8A\	.	.	(>8ff#\L	.	(>8aa\L	.	4r	4r	4r	4r
8A\J	.	.	8dd\J)	.	8ff#\J)	.	.	.	.	.
=34	=34	=34	=34	=34	=34	=34	=34	=34	=34	=34
*tremolo	*	*	*	*	*	*	*	*	*	*
8A\L	.	2.ryy	4dd\	.	4ff#\	.	4A/	4a/	(>4ff#\	(>4aa\
8A\	.	.	.	.	.	.	.	.	.	.
8A\	.	.	4r	.	4r	.	4r	4r	4dd\)	4ee\)
8A\	.	.	.	.	.	.	.	.	.	.
8A\	.	.	(>8ee\L	.	(>8aa\L	.	4r	4r	4r	4r
8A\J	.	.	8cc#\J)	.	8ee\J)	.	.	.	.	.
*Xtremolo	*	*	*	*	*	*	*	*	*	*
!LO:LB:g=original	!	!	!	!	!	!	!	!	!	!
=35	=35	=35	=35	=35	=35	=35	=35	=35	=35	=35
!LO:TX:a:t=P:problem=mixed beam	!	!	!	!	!	!	!	!	!	!
8AA/L	.	2.ryy	4cc#\	.	4ee\	.	4A/	4a/	4ee\	(>4aa\
8A\	.	.	.	.	.	.	.	.	.	.
8A\	.	.	4r	.	4r	.	4r	4r	4cc#\	4ee\)
8A\	.	.	.	.	.	.	.	.	.	.
8A\	.	.	(<8e/L	.	(>8a\L	.	4r	4r	4r	4r
8A\J	.	.	8a/J)	.	8cc#\J)	.	.	.	.	.
=36	=36	=36	=36	=36	=36	=36	=36	=36	=36	=36
!LO:TX:a:t=P:problem=mixed beam	!	!	!	!	!	!	!	!LO:TX:a:t=P:problem=w źródle brakuje jednego taktu	!	!
8AA/L	.	2.ryy	4cc#\	.	4ee\	.	4A/	2.ryy	(>4ee\	(>4aa\
8A\	.	.	.	.	.	.	.	.	.	.
8A\	.	.	4r	.	4r	.	4r	.	4cc#\)	4ee\)
8A\	.	.	.	.	.	.	.	.	.	.
8A\	.	.	(<8e/L	.	(>8a\L	.	4r	.	4r	4r
8A\J	.	.	8a/J)	.	8cc#\J)	.	.	.	.	.
=37	=37	=37	=37	=37	=37	=37	=37	=37	=37	=37
!	!	!	!	!	!	!	!LO:TX:a:t=4	!	!	!
!	!	!	!	!	!	!	!LO:N:vis=00	!LO:N:vis=00	!LO:N:vis=00	!LO:N:vis=00
4A\	.	2.ryy	4cc#\	.	4ee\	.	0.r	0.r	0.r	0.r
4G#\	.	.	4b\	.	4dd\	.	.	.	.	.
4A\	.	.	4a/	.	4cc#\	.	.	.	.	.
=38	=38	=38	=38	=38	=38	=38	=38	=38	=38	=38
4E\	.	2.ryy	(<4a/	.	4cc#\	.	.	.	.	.
4e\	.	.	4g#X/)	.	4b\	.	.	.	.	.
4r	.	.	(<8a/L	.	4r	.	.	.	.	.
.	.	.	8cc#/J)	.	.	.	.	.	.	.
=39	=39	=39	=39	=39	=39	=39	=39	=39	=39	=39
*	*	*	*	*	*2\right	*	*	*	*	*
!	!	!	!	!	!	!LO:DY:a:t=p&colon;	!	!	!	!
4A\	.	2.ryy	4ee\	.	2cc#\	p	.	.	.	.
4A\	.	.	4aa\	.	.	.	.	.	.	.
4A\	.	.	4cc#\	.	4a/	.	.	.	.	.
=40	=40	=40	=40	=40	=40	=40	=40	=40	=40	=40
.	.	.	8qqcc#/	.	8qqa/	.	.	.	.	.
4E\	.	2.ryy	2.b\	.	2.g#/	.	.	.	.	.
4BB/	.	.	.	.	.	.	.	.	.	.
4E\	.	.	.	.	.	.	.	.	.	.
!	!	!	!LO:LB:g=original	!	!	!	!	!	!	!
=41||;	=41	=41	=41||;	=41	=41||;	=41	=41||	=41||;	=41||;	=41||;
!	!	!	!	!	!LO:TX:a:i:t=ſolo	!	!	!	!	!
8E\L	.	2.ryy	4g#/	.	4b\	.	4ee\	4ee\	4r	4r
8E\	.	.	.	.	.	.	.	.	.	.
8E\	.	.	8r	.	8r	.	4r	4r	4g#/	4b\
8E\	.	.	(<8g#/L	.	(>8b\L	.	.	.	.	.
8E\	.	.	8b/	.	8dd\	.	4r	4r	4r	4r
8E\J	.	.	8a/J)	.	8cc#\J)	.	.	.	.	.
=42	=42	=42	=42	=42	=42	=42	=42	=42	=42	=42
*tremolo	*	*	*	*	*	*	*	*	*	*
8E\L	.	2.ryy	4a/	.	4cc#\	.	4ee\	4ee\	4r	4r
8E\	.	.	.	.	.	.	.	.	.	.
8E\	.	.	8r	.	8r	.	4r	4r	4a/	4cc#\
8E\	.	.	(>8a\L	.	(>8cc#\L	.	.	.	.	.
8E\	.	.	8cc#\	.	8ee\	.	4r	4r	4r	4r
8E\J	.	.	8b\J)	.	8dd\J)	.	.	.	.	.
=43	=43	=43	=43	=43	=43	=43	=43	=43	=43	=43
!	!	!	!	!	!	!	!	!LO:TX:a:t=P:problem=w źródle takt 43 zapisany jako repetycja taktu 42	!	!
8E\L	.	2.ryy	4b\	.	4dd\	.	4ee\	4ee\	4r	4r
8E\	.	.	.	.	.	.	.	.	.	.
8E\	.	.	8r	.	8r	.	4r	4r	4b\	4dd\
8E\	.	.	(>8b\L	.	(>8dd\L	.	.	.	.	.
8E\	.	.	8dd\	.	8ff#\	.	4r	4r	(>8dd\L	(>8ff#\L
8E\J	.	.	8b\J)	.	8dd\J)	.	.	.	8b\J)	8dd\J)
*Xtremolo	*	*	*	*	*	*	*	*	*	*
=44	=44	=44	=44	=44	=44	=44	=44	=44	=44	=44
8A\L	.	2.ryy	(<2a/	.	(>2cc#\	.	4A/	4a/	(<2a/	(>2cc#\
8A\	.	.	.	.	.	.	.	.	.	.
8D#X\	.	.	.	.	.	.	4r	4r	.	.
8D#\J	.	.	.	.	.	.	.	.	.	.
16E\LL	.	.	4g#/)	.	4b\)	.	4r	4r	4g#/)	4b\)
16Dn\	.	.	.	.	.	.	.	.	.	.
16C#\	.	.	.	.	.	.	.	.	.	.
16BB\JJ	.	.	.	.	.	.	.	.	.	.
!	!	!	!	!	!	!	!	!	!LO:LB:g=original	!
=45	=45	=45	=45	=45	=45	=45	=45	=45	=45	=45
!LO:TX:a:t=P:problem=mixed beam	!	!	!	!	!	!	!	!	!	!
8AA/L	.	2.ryy	4cc#\	.	4ee\	.	4A/	4a/	4r	4r
8A\J	.	.	.	.	.	.	.	.	.	.
*tremolo	*	*	*	*	*	*	*	*	*	*
8A\L	.	.	8r	.	8r	.	4r	4r	4cc#\	4ee\
8A\	.	.	(>8cc#\L	.	(>8ee\L	.	.	.	.	.
8A\	.	.	8dd\	.	8ff#\	.	4r	4r	4r	4r
8A\J	.	.	8cc#\J)	.	8ee\J)	.	.	.	.	.
*Xtremolo	*	*	*	*	*	*	*	*	*	*
!LO:LB:g=original	!	!	!	!	!LO:LB:g=original	!	!	!	!	!LO:LB:g=original
=46	=46	=46	=46	=46	=46	=46	=46	=46	=46	=46
!	!	!	!	!	!	!	!LO:TX:a:t=P:problem=w źródle brakuje jednego taktu	!LO:TX:a:t=P:problem=w źródle brakuje jednego taktu	!	!
8AA/L	.	2.ryy	4cc#\	.	4ee\	.	2.ryy	2.ryy	4ee\	(>4aa\
8A\J	.	.	.	.	.	.	.	.	.	.
*tremolo	*	*	*	*	*	*	*	*	*	*
8A\L	.	.	8r	.	8r	.	.	.	4cc#\	4ee\)
8A\	.	.	(>8cc#\L	.	(>8ee\L	.	.	.	.	.
8A\	.	.	8ee\	.	8aa\	.	.	.	4r	4r
8A\J	.	.	8cc#\J)	.	8ee\J)	.	.	.	.	.
*Xtremolo	*	*	*	*	*	*	*	*	*	*
=47	=47	=47	=47	=47	=47	=47	=47	=47	=47	=47
!	!	!	!	!	!	!	!LO:N:vis=0	!LO:N:vis=0	!LO:N:vis=0	!LO:N:vis=0
8A\	.	2.ryy	8r	.	8r	.	1.r	1.r	1.r	1.r
8r	.	.	8a/	.	8cc#\	.	.	.	.	.
8A\	.	.	8r	.	8r	.	.	.	.	.
!	!	!	!	!	!	!	!LO:TX:a:t=2	!	!	!
8r	.	.	8b/	.	8dd\	.	.	.	.	.
8E\	.	.	8r	.	8r	.	.	.	.	.
8r	.	.	8g#/	.	8b\	.	.	.	.	.
=48	=48	=48	=48	=48	=48	=48	=48	=48	=48	=48
8E\L	.	2.ryy	(<2g#/	.	(>2b\	.	.	.	.	.
8E\	.	.	.	.	.	.	.	.	.	.
8E\	.	.	.	.	.	.	.	.	.	.
8E\	.	.	.	.	.	.	.	.	.	.
8A\	.	.	4a/)	.	4cc#\)	.	.	.	.	.
8E\J	.	.	.	.	.	.	.	.	.	.
=49	=49	=49	=49	=49	=49	=49	=49	=49	=49	=49
!LO:TX:a:t=P:problem=mixed beam	!	!	!LO:TX:a:i:t=ſolo	!	!	!LO:DY:a:t=p&colon;	!	!	!	!
8AA/L	.	2.ryy	4ee\	.	4cc#\	p	4A/	4a/	4r	4r
8A\J	.	.	.	.	.	.	.	.	.	.
*tremolo	*	*	*	*	*	*	*	*	*	*
8A\L	.	.	8r	.	8r	.	4r	4r	4cc#\	4ee\
8A\	.	.	(>8ee\L	.	(>8cc#\L	.	.	.	.	.
8A\	.	.	8ff#\	.	8ee\	.	4r	4r	4r	4r
8A\J	.	.	8ee\J)	.	8cc#\J)	.	.	.	.	.
*Xtremolo	*	*	*	*	*	*	*	*	*	*
!	!	!	!	!	!	!	!LO:LB:g=original	!	!	!
=50	=50	=50	=50	=50	=50	=50	=50	=50	=50	=50
!LO:TX:a:t=P:problem=mixed beam	!	!	!	!	!	!	!	!	!	!
8AA/L	.	2.ryy	4ee\	.	4cc#\	.	4A/	4a/	(>4ee\	(>4aa\
8A\J	.	.	.	.	.	.	.	.	.	.
*tremolo	*	*	*	*	*	*	*	*	*	*
8A\L	.	.	8r	.	8r	.	4r	4r	4cc#\)	4ee\)
8A\	.	.	(>8ee\L	.	(>8cc#\L	.	.	.	.	.
8A\	.	.	8aa\	.	8ee\	.	4r	4r	4r	4r
8A\J	.	.	8ee\J)	.	8cc#\J)	.	.	.	.	.
*Xtremolo	*	*	*	*	*	*	*	*	*	*
!	!	!	!LO:LB:g=original	!	!	!	!	!	!	!
=51	=51	=51	=51	=51	=51	=51	=51	=51	=51	=51
!	!	!	!	!	!	!	!LO:TX:a:t=2	!	!	!
!	!	!	!	!	!	!	!LO:N:vis=0	!LO:N:vis=0	!LO:N:vis=0	!LO:N:vis=0
8A\	.	2.ryy	8r	.	8r	.	1.r	1.r	1.r	1.r
8r	.	.	8cc#\	.	8e/	.	.	.	.	.
8A\	.	.	8r	.	8r	.	.	.	.	.
8r	.	.	8dd\	.	8f#/	.	.	.	.	.
8E\	.	.	8r	.	8r	.	.	.	.	.
8r	.	.	8b\	.	8g#/	.	.	.	.	.
=52	=52	=52	=52	=52	=52	=52	=52	=52	=52	=52
!	!	!	!	!	!	!	!	!LO:TX:b:i:t=Da Capo	!	!
4A\	.	2.ryy	(>2b\	.	(<2g#/	.	.	.	.	.
4E\	.	.	.	.	.	.	.	.	.	.
4AA/	.	.	4a\)	.	4a/)	.	.	.	.	.
!	!	!	!	!	!	!	!	!	!LO:TX:a:t=P:problem=w źródle ta adnotacja zapisana na pięciolinii, za ostatnim taktem	!LO:TX:a:t=P:problem=w źródle ta adnotacja zapisana na pięciolinii, za ostatnim taktem
!	!	!	!	!	!	!	!LO:TX:a:t=P:problem=w źródle ta adnotacja zapisana na pięciolinii, za ostatnim taktem	!	!	!
!	!	!	!	!	!LO:TX:a:t=P:problem=w źródle ta adnotacja zapisana na pięciolinii, za ostatnim taktem	!	!	!	!	!
!LO:TX:a:t=P:problem=w źródle ta adnotacja zapisana na pięciolinii, za ostatnim taktem	!	!	!LO:TX:a:t=P:problem=w źródle ta adnotacja zapisana na pięciolinii, za ostatnim taktem	!	!	!	!	!	!	!
!LO:TX:a:i:t=D.C.M.	!	!	!LO:TX:a:i:t=M.D.C.	!	!LO:TX:a:i:t=Men&colon; Da Capo	!	!LO:TX:a:i:t=Menueto da Capo.	!	!LO:TX:a:i:t=Da Capo	!LO:TX:a:i:t=Da Capo Menueto
==;	==	==	==	==	==;	==	==;	==;	==;	==;
*-	*-	*-	*-	*-	*-	*-	*-	*-	*-	*-
!!!system-decoration: [g1][g2][g3]s8
!!!RDF**kern: > = above
!!!RDF**kern: < = below
!!!RDF**kern: | = vertical stroke
!!!EED: Antoni Szymański
!!!EEV: 2020-12-03
!!!ENC: Andrzej Gręziak
!!!END: 2020-04-30
!!!YEC: Copyright 2022 Narodowy Instytut Fryderyka Chopina (https://polishscores.org)
!!!YEM: Licence CC BY 4.0 (https://creativecommons.org/licenses/by/4.0)
